icons/Pkl-Light.svg

<svg width="256" height="256" viewBox="0 0 256 256" fill="none" xmlns="http://www.w3.org/2000/svg">
<g clip-path="url(#clip0_33_498)">
<path d="M196 0H60C26.8629 0 0 26.8629 0 60V196C0 229.137 26.8629 256 60 256H196C229.137 256 256 229.137 256 196V60C256 26.8629 229.137 0 196 0Z" fill="#F4F2ED"/>
<path d="M178.268 69.9061L183.1 43.8441C175.763 39.0054 167.789 35.1502 159.418 32.3768L141.581 52.1446C132.892 50.571 123.983 50.512 115.274 51.9873L97.656 31.9834C89.2448 34.6388 81.2313 38.3956 73.8143 43.1557L78.3082 69.2767C71.6469 75.0202 66.0394 81.8652 61.7642 89.5363L34.9994 90.6771C31.8576 98.8399 29.8294 107.376 28.9744 116.07L52.4383 128.875C52.8161 137.608 54.7449 146.204 58.1253 154.288L42.3369 175.708C46.8308 183.222 52.319 190.126 58.6423 196.204L83.3987 186.054C90.5373 191.208 98.5508 195.083 107.042 197.502L114.121 223.072C122.87 224.292 131.738 224.331 140.488 223.23L147.885 197.758C156.415 195.456 164.469 191.68 171.667 186.605L196.284 197.069C202.687 191.07 208.274 184.245 212.848 176.77L197.338 155.154C200.818 147.128 202.866 138.533 203.363 129.819L226.986 117.31C226.23 108.616 224.321 100.04 221.279 91.8376L194.534 90.3624C190.358 82.652 184.85 75.7283 178.249 69.9061H178.268Z" fill="#6B9543"/>
<path d="M129.511 186.802C164.094 186.802 192.128 159.071 192.128 124.863C192.128 90.6547 164.094 62.9236 129.511 62.9236C94.929 62.9236 66.8945 90.6547 66.8945 124.863C66.8945 159.071 94.929 186.802 129.511 186.802Z" fill="#E9F4CA"/>
<path d="M85.2479 154.013C101.593 181.983 134.602 191.326 126.707 133.419C126.091 128.915 123.605 124.863 119.847 122.247C70.8116 88.1005 67.4113 123.506 85.2479 154.013ZM115.91 137.786C117.302 137.451 118.376 138.041 118.873 139.418C125.375 157.435 113.703 163.985 105.53 159.953C98.0337 156.255 98.0337 142.231 115.91 137.786ZM111.655 127.066C112.609 128.187 112.589 129.406 111.595 130.41C98.7893 143.529 86.5006 136.507 86.9977 128.266C87.5346 119.257 99.1075 112.51 111.655 127.066Z" fill="#C8D987"/>
<path d="M118.745 163.101C126.012 158.951 125.657 144.887 117.953 131.688C110.249 118.489 98.1134 111.153 90.8472 115.303C83.5811 119.453 83.9359 133.517 91.6398 146.716C99.3436 159.915 111.479 167.251 118.745 163.101Z" fill="#C8D987"/>
<path d="M126.111 72.3649C93.4602 72.3846 68.7635 95.9879 123.407 118.175C127.662 119.906 132.434 119.788 136.61 117.88C191.034 92.9588 161.724 72.3256 126.091 72.3452L126.111 72.3649ZM124.997 106.747C124.6 108.104 123.546 108.734 122.094 108.478C103.065 105.036 103.164 91.759 110.78 86.7826C117.759 82.2193 130.048 89.2216 124.997 106.767V106.747ZM136.511 108.458C135.059 108.714 133.985 108.104 133.607 106.727C128.517 89.202 140.806 82.18 147.785 86.7236C155.401 91.7 155.54 104.977 136.511 108.439V108.458Z" fill="#C8D987"/>
<path d="M129.292 111.546C144.7 111.546 157.191 104.818 157.191 96.5189C157.191 88.2195 144.7 81.4915 129.292 81.4915C113.885 81.4915 101.394 88.2195 101.394 96.5189C101.394 104.818 113.885 111.546 129.292 111.546Z" fill="#C8D987"/>
<path d="M177.175 148.21C193.48 120.221 185.168 87.2742 138.4 122.994C134.761 125.767 132.454 129.918 132.057 134.461C126.668 193.548 159.378 178.757 177.175 148.23V148.21ZM147.626 130.055C146.632 129.033 146.612 127.813 147.567 126.712C160.094 112.136 171.667 118.863 172.224 127.872C172.741 136.133 160.452 143.155 147.626 130.055ZM140.368 139.064C140.865 137.687 141.939 137.097 143.331 137.431C161.207 141.837 161.227 155.881 153.751 159.579C145.598 163.611 133.906 157.101 140.368 139.064Z" fill="#C8D987"/>
<path d="M167.572 146.367C175.276 133.168 175.63 119.104 168.364 114.955C161.098 110.805 148.963 118.141 141.259 131.34C133.555 144.539 133.2 158.603 140.466 162.753C147.732 166.902 159.868 159.567 167.572 146.367Z" fill="#C8D987"/>
</g>
<defs>
<clipPath id="clip0_33_498">
<rect width="256" height="256" fill="white"/>
</clipPath>
</defs>
</svg>

<svg xmlns="http://www.w3.org/2000/svg" width="256" height="256" fill="none" viewBox="0 0 256 256"><g clip-path="url(#a)"><path fill="#F4F2ED" d="M196 0H60A60 60 0 0 0 0 60v136a60 60 0 0 0 60 60h136a60 60 0 0 0 60-60V60a60 60 0 0 0-60-60"/><path fill="#6B9543" d="m178.27 69.9 4.83-26.06a100 100 0 0 0-23.68-11.46l-17.84 19.76a76 76 0 0 0-26.3-.15l-17.62-20A100 100 0 0 0 73.8 43.15l4.5 26.12a75 75 0 0 0-16.55 20.26L35 90.68a97 97 0 0 0-6.03 25.39l23.47 12.8a74 74 0 0 0 5.69 25.42l-15.8 21.42a99 99 0 0 0 16.31 20.5l24.76-10.16a76 76 0 0 0 23.64 11.45l7.08 25.57a100 100 0 0 0 26.37.16l7.4-25.47a75 75 0 0 0 23.78-11.15l24.61 10.46a98 98 0 0 0 16.57-20.3l-15.51-21.62a74 74 0 0 0 6.02-25.33L227 117.3a98 98 0 0 0-5.71-25.47l-26.75-1.48a75 75 0 0 0-16.28-20.45z"/><path fill="#E9F4CA" d="M129.51 186.8c34.58 0 62.62-27.73 62.62-61.94s-28.04-61.94-62.62-61.94S66.9 90.65 66.9 124.86s28.04 61.94 62.62 61.94"/><path fill="#C8D987" d="M85.25 154.01c16.34 27.97 49.35 37.32 41.46-20.6a16.3 16.3 0 0 0-6.86-11.16C70.8 88.1 67.4 123.5 85.25 154m30.66-16.22c1.4-.34 2.47.25 2.96 1.63 6.5 18.02-5.17 24.57-13.34 20.53-7.5-3.7-7.5-17.72 10.38-22.16m-4.25-10.72c.95 1.12.93 2.34-.06 3.34-12.81 13.12-25.1 6.1-24.6-2.14.53-9.01 12.1-15.76 24.66-1.2"/><path fill="#C8D987" d="M118.75 163.1c7.26-4.15 6.9-18.21-.8-31.41s-19.84-20.54-27.1-16.39-6.91 18.22.79 31.42 19.84 20.53 27.1 16.38m7.37-90.74c-32.65.02-57.35 23.63-2.7 45.82a16.7 16.7 0 0 0 13.2-.3c54.42-24.92 25.11-45.55-10.52-45.53zM125 106.75c-.4 1.35-1.45 1.98-2.9 1.73-19.03-3.44-18.94-16.72-11.32-21.7 6.98-4.56 19.27 2.44 14.22 19.99zm11.51 1.7c-1.45.26-2.52-.35-2.9-1.72-5.1-17.53 7.2-24.55 14.17-20 7.62 4.97 7.76 18.25-11.27 21.7z"/><path fill="#C8D987" d="M129.3 111.55c15.4 0 27.9-6.73 27.9-15.03s-12.5-15.03-27.9-15.03c-15.42 0-27.9 6.73-27.9 15.03s12.49 15.03 27.9 15.03m47.88 36.66c16.3-27.99 7.99-60.94-38.78-25.22a16.2 16.2 0 0 0-6.34 11.47c-5.4 59.09 27.32 44.3 45.12 13.77zm-29.55-18.15c-1-1.03-1.02-2.25-.06-3.35 12.52-14.57 24.1-7.85 24.65 1.16.52 8.26-11.77 15.28-24.6 2.19m-7.26 9c.5-1.37 1.57-1.96 2.96-1.63 17.88 4.4 17.9 18.45 10.42 22.15-8.15 4.03-19.84-2.48-13.38-20.52"/><path fill="#C8D987" d="M167.57 146.37c7.7-13.2 8.06-27.27.8-31.42-7.27-4.14-19.4 3.2-27.11 16.39-7.7 13.2-8.06 27.26-.8 31.41s19.4-3.18 27.11-16.38"/></g><defs><clipPath id="a"><path fill="#fff" d="M0 0h256v256H0z"/></clipPath></defs></svg>
